assets/svg/gift-card-pay.svg

<?xml version="1.0" encoding="UTF-8"?>
<svg width="1000px" height="1000px" viewBox="0 0 1000 1000" version="1.1" xmlns="http://www.w3.org/2000/svg" xmlns:xlink="http://www.w3.org/1999/xlink">
    <!-- Generator: sketchtool 52.4 (67378) - http://www.bohemiancoding.com/sketch -->
    <title>gift-card-pay</title>
    <desc>Created with sketchtool.</desc>
    <g id="旧版图标(剩余)" stroke="none" stroke-width="1" fill="none" fill-rule="evenodd">
        <path d="M728.099019,333.333333 C752.081037,303.136027 758.382151,267.794729 731.77002,235.127525 C728.009623,230.511523 723.646637,226.110946 718.687432,221.919774 C661.225638,173.357109 598.903533,194.167606 535.53401,258.40901 C520.928043,273.215935 509.528175,284.797143 500.860678,293.622272 C491.830384,283.889351 479.874359,271.407123 464.435037,255.755376 C404.267298,194.759809 329.84168,173.542788 279.141268,223.472811 C243.591398,258.594354 246.291372,298.99779 271.080478,333.333335 L167.666667,333.333333 C167.114382,333.333333 166.666667,333.781049 166.666667,334.333333 L166.666667,832.333333 C166.666667,832.885618 167.114382,833.333333 167.666667,833.333333 L832.333333,833.333333 C832.885618,833.333333 833.333333,832.885618 833.333333,832.333333 L833.333333,334.333333 C833.333333,333.781049 832.885618,333.333333 832.333333,333.333333 L728.099019,333.333333 Z M660.188797,333.333333 L539.727748,333.333333 C548.434373,324.466885 560.047418,312.668087 575.085196,297.42341 C620.665823,251.215654 654.081283,240.057617 682.827084,264.351545 C685.223964,266.37722 687.167295,268.337295 688.6978,270.216036 C695.787301,278.918615 693.945536,287.735097 683.15037,300.546755 C678.596399,305.95139 673.989592,310.030491 671.505121,311.856027 C664.365762,317.101875 660.462871,325.116413 660.188797,333.333333 Z M337.183477,333.333333 C336.924075,325.507533 333.375482,317.838199 326.784693,312.559564 C324.828289,310.992659 320.996011,307.264248 317.158582,302.210859 C305.794988,287.246496 304.808407,276.210465 318.253629,262.927346 C340.924696,240.600856 383.392342,252.707399 424.883851,294.769776 C441.314427,311.426415 453.421252,324.11084 461.939041,333.333333 L337.183477,333.333333 Z M2,0 L998,0 C999.104569,-2.02906125e-16 1000,0.8954305 1000,2 L1000,998 C1000,999.104569 999.104569,1000 998,1000 L2,1000 C0.8954305,1000 1.3527075e-16,999.104569 0,998 L0,2 C-1.3527075e-16,0.8954305 0.8954305,2.02906125e-16 2,0 Z M166.666667,666.666667 L833.333333,666.666667 L833.333333,722.222222 L166.666667,722.222222 L166.666667,666.666667 Z" id="Combined-Shape" fill="#333333"></path>
    </g>
</svg>

<svg width="1000" height="1000" xmlns="http://www.w3.org/2000/svg"><path d="M728.099 333.333c23.982-30.197 30.283-65.538 3.671-98.205-3.76-4.616-8.123-9.017-13.083-13.208-57.461-48.563-119.783-27.752-183.153 36.489a23221.676 23221.676 0 0 0-34.673 35.213c-9.03-9.733-20.987-22.215-36.426-37.867-60.168-60.995-134.593-82.212-185.294-32.282-35.55 35.121-32.85 75.525-8.06 109.86H167.666a1 1 0 0 0-1 1v498a1 1 0 0 0 1 1h664.666a1 1 0 0 0 1-1v-498a1 1 0 0 0-1-1H728.1zm-67.91 0H539.728c8.706-8.866 20.32-20.665 35.357-35.91 45.58-46.207 78.996-57.365 107.742-33.071 2.397 2.025 4.34 3.985 5.87 5.864 7.09 8.703 5.249 17.52-5.547 30.33-4.554 5.405-9.16 9.484-11.645 11.31-7.14 5.246-11.042 13.26-11.316 21.477zm-323.006 0c-.259-7.825-3.808-15.495-10.398-20.773-1.957-1.567-5.789-5.296-9.626-10.35-11.364-14.964-12.35-26 1.095-39.283 22.67-22.326 65.138-10.22 106.63 31.843 16.43 16.656 28.537 29.34 37.055 38.563H337.183zM2 0h996a2 2 0 0 1 2 2v996a2 2 0 0 1-2 2H2a2 2 0 0 1-2-2V2a2 2 0 0 1 2-2zm164.667 666.667h666.666v55.555H166.667v-55.555z" fill="#333" fill-rule="evenodd"/></svg>
